assets/Woman farmer/Default/Flat/woman_farmer_flat_default.svg

<svg width="32" height="32" viewBox="0 0 32 32" fill="none" xmlns="http://www.w3.org/2000/svg">
<path d="M20.4751 4.98999H20.48C22.96 4.98999 24.98 6.99999 24.98 9.48999C24.98 11.97 22.96 13.99 20.48 13.99H9.51001C7.03001 13.99 5.01001 11.98 5.01001 9.48999C5.01001 7.01967 7.00435 5.00576 9.48088 4.99008L10.5 4.5L10.2696 4C11.4865 2.74247 13.1764 2 14.98 2C16.7832 2 18.4736 2.7415 19.6888 4L19.5 4.5L20.4751 4.98999Z" fill="#7D4533"/>
<path d="M20.4756 4.98999C20.2436 4.63205 19.9798 4.30301 19.6899 4H10.2699C9.98257 4.30075 9.71752 4.63276 9.48376 4.99006C9.4925 4.99002 9.50123 4.98999 9.50998 4.98999H20.4756Z" fill="#533566"/>
<path d="M22.22 8.94005C22.58 9.48005 22.79 10.12 22.79 10.82C22.79 11.35 22.67 11.85 22.47 12.29C22.4 12.44 22.4 12.62 22.47 12.77C22.69 13.22 22.81 13.73 22.8 14.27C22.77 16.1 21.25 17.56 19.42 17.56H10.64C8.80998 17.56 7.27998 16.1 7.25998 14.27C7.24998 13.73 7.36998 13.22 7.58998 12.77C7.65998 12.62 7.65998 12.44 7.58998 12.29C7.37998 11.85 7.25998 11.35 7.25998 10.82C7.25998 10.13 7.42998 9.45005 7.82998 8.94005C8.18998 8.47005 8.46998 8.10005 8.69998 7.80005C9.18998 7.17005 9.93998 6.80005 10.73 6.80005H18.28C19.86 6.80005 21.34 7.60005 22.21 8.92005C22.21 8.93005 22.22 8.93005 22.22 8.94005Z" fill="#F1A11E"/>
<path d="M8 17.9947C7.99005 18.0029 7.98012 18.0111 7.97021 18.0193L7.97006 17.99C6.43116 19.2692 5.2492 20.9656 4.59182 22.9038C4.20821 24.0217 4 25.2513 4 26.5V29.97H4.03L4.03006 29.98L6 30H8L9 24L8 17.9947Z" fill="#00D26A"/>
<path d="M22 30H26V26.5C26 23.0908 24.4417 20.038 22 18.0167L21 24L22 30Z" fill="#00D26A"/>
<path d="M20 16.6977L21 20L20 23L15 24L10 23L9 20L10 16.6833C11.4974 15.9202 13.1933 15.49 14.99 15.49C16.793 15.49 18.4963 15.9258 20 16.6977Z" fill="#00D26A"/>
<path d="M10 16.6833C9.28444 17.048 8.61422 17.4887 8 17.9948V30.0001H22V18.0168C21.3857 17.5082 20.7154 17.065 20 16.6978V22.5001C20 22.7762 19.7761 23.0001 19.5 23.0001H10.5C10.2239 23.0001 10 22.7762 10 22.5001V16.6833Z" fill="#0084CE"/>
<path d="M11 27C11 26.4477 11.4477 26 12 26H18C18.5523 26 19 26.4477 19 27V30H11V27Z" fill="#46A4FB"/>
<path d="M11.87 21.53L14.99 19.34L18.11 21.53C18.48 21.79 18.99 21.53 18.99 21.07V16.24C17.75 15.76 16.4 15.49 14.99 15.49C13.58 15.49 12.23 15.76 10.99 16.24V21.08C10.99 21.52 11.5 21.79 11.87 21.53Z" fill="#008463"/>
<path d="M15.91 19.68L15.26 20.26C15.1 20.4 14.87 20.4 14.71 20.26L14.06 19.68C13.34 19.03 12.92 18.1 12.92 17.13V14.04C12.92 12.9 13.84 11.98 14.98 11.98C16.12 11.98 17.04 12.9 17.04 14.04V17.13C17.04 18.1 16.63 19.03 15.91 19.68Z" fill="white"/>
<path d="M14.9901 18.66C13.8501 18.66 12.9301 17.74 12.9301 16.6V14.04C12.9301 12.9 13.8501 11.98 14.9901 11.98C16.1301 11.98 17.0501 12.9 17.0501 14.04V16.6C17.0401 17.74 16.1201 18.66 14.9901 18.66Z" fill="#FCB100"/>
<path d="M27 23C27.55 23 28 23.4103 28 23.9119V26H26V23.9119C26 23.4103 26.44 23 27 23Z" fill="#F59F00"/>
<path d="M26 21.76H25V25.76H26V21.76Z" fill="#7D4533"/>
<path d="M28.4608 10.99C28.1912 11.01 27.9914 11.24 27.9914 11.51V15.96C27.9914 16.5 27.582 16.96 27.0428 16.99C26.4736 17.02 25.9943 16.56 25.9943 15.99V11.51C25.9943 11.24 25.7946 11.01 25.525 10.99C25.2354 10.97 24.9957 11.2 24.9957 11.49V15.96C24.9957 16.5 24.5863 16.96 24.0471 16.99C23.4779 17.02 22.9986 16.56 22.9986 15.99V11.51C22.9986 11.24 22.7989 11.01 22.5292 10.99C22.2397 10.97 22 11.2 22 11.49V18.57C22 19.35 22.6291 20 23.408 20H24.7461V21.76C24.7461 21.88 24.8459 21.98 24.9658 21.98H26.0342C26.1541 21.98 26.2539 21.88 26.2539 21.76V20H27.592C28.3709 20 29 19.35 29 18.57V11.49C28.99 11.2 28.7504 10.97 28.4608 10.99Z" fill="#D3D3D3"/>
<path d="M24.2091 24.76C23.8364 24.76 23.5182 25.08 23.5091 25.48C23.5 25.75 23.6273 25.99 23.8091 26.13C23.6273 26.26 23.5 26.49 23.5 26.75C23.5 27.01 23.6182 27.24 23.8091 27.37C23.6273 27.5 23.5 27.73 23.5 27.99C23.5 28.25 23.6182 28.48 23.8091 28.61C23.6182 28.75 23.5 28.99 23.5091 29.26C23.5182 29.68 23.8364 30 24.2091 30H27.2091C27.6455 30 28 29.61 28 29.13V25.62C28 25.14 27.6455 24.75 27.2091 24.75H24.2091V24.76Z" fill="#FFC83D"/>
<path d="M11.8099 10.66C11.8099 11.5603 11.0802 12.29 10.1799 12.29C9.2797 12.29 8.54993 11.5603 8.54993 10.66C8.54993 9.7598 9.2797 9.03003 10.1799 9.03003C11.0802 9.03003 11.8099 9.7598 11.8099 10.66Z" fill="#FDBB11"/>
<path d="M21.5299 10.66C21.5299 11.5603 20.8002 12.29 19.8999 12.29C18.9997 12.29 18.2699 11.5603 18.2699 10.66C18.2699 9.7598 18.9997 9.03003 19.8999 9.03003C20.8002 9.03003 21.5299 9.7598 21.5299 10.66Z" fill="#FDBB11"/>
<path d="M19.0699 7.57005H15.7799C14.9299 7.57005 14.1099 7.29005 13.4399 6.80005H11.5299C11.3099 7.04005 11.0399 7.23005 10.7499 7.36005C10.7099 7.38005 10.6799 7.40005 10.6399 7.41005C10.3999 7.53005 9.82995 7.91005 9.81995 8.88005L9.95995 12.15C10.0699 15.06 12.3099 17 15.0299 17C17.7499 17 19.9799 15.06 20.0999 12.15L20.2299 9.04005C20.2199 7.67005 19.2599 7.57005 19.0699 7.57005Z" fill="#FFC83D"/>
<path d="M12.3399 9.47998C12.9199 9.47998 13.3999 9.87998 13.6899 10.33C13.4288 10.4109 13.1745 10.4837 12.9224 10.5558C12.4891 10.6798 12.0625 10.8019 11.6199 10.96L11.1299 10.51C10.9199 10.33 10.9399 9.99998 11.1599 9.83998C11.4899 9.60998 11.9299 9.47998 12.3399 9.47998Z" fill="black"/>
<path d="M17.7399 9.47998C17.1599 9.47998 16.6899 9.87998 16.3899 10.33C16.6572 10.4128 16.9174 10.4871 17.1759 10.5609C17.6039 10.6832 18.0272 10.8041 18.4699 10.96L18.9599 10.51C19.1599 10.33 19.1399 9.99998 18.9199 9.83998C18.5899 9.60998 18.1499 9.47998 17.7399 9.47998Z" fill="black"/>
<path d="M11.1199 10.6701C11.2799 10.0401 11.8399 9.58008 12.5199 9.58008C13.2199 9.58008 13.8099 10.0801 13.9399 10.7401C13.9599 10.8901 13.8499 11.0201 13.6999 11.0201H11.3999C11.2099 11.0201 11.0799 10.8501 11.1199 10.6701Z" fill="white"/>
<path d="M18.9599 10.6701C18.7999 10.0401 18.2399 9.58008 17.5599 9.58008C16.8599 9.58008 16.2799 10.0801 16.1399 10.7401C16.1199 10.8901 16.2299 11.0201 16.3799 11.0201H18.6799C18.8699 11.0201 18.9999 10.8501 18.9599 10.6701Z" fill="white"/>
<path d="M11.8099 10.7801C11.8099 10.2701 12.2199 9.86011 12.7299 9.86011C13.2399 9.86011 13.6599 10.2801 13.6499 10.7801C13.6499 10.8601 13.6399 10.9401 13.6199 11.0201H11.8399C11.8199 10.9501 11.8099 10.8601 11.8099 10.7801Z" fill="#7D4533"/>
<path d="M18.2699 10.7801C18.2699 10.2701 17.8599 9.86011 17.3499 9.86011C16.8399 9.86011 16.4299 10.2801 16.4299 10.7801C16.4299 10.8601 16.4399 10.9401 16.4599 11.0201H18.2399C18.2599 10.9501 18.2699 10.8601 18.2699 10.7801Z" fill="#7D4533"/>
<path d="M12.73 10.25C13.02 10.25 13.26 10.49 13.26 10.78C13.26 10.86 13.24 10.95 13.2 11.02H12.26C12.22 10.95 12.2 10.87 12.2 10.78C12.2 10.49 12.44 10.25 12.73 10.25Z" fill="black"/>
<path d="M17.3499 10.25C17.0599 10.25 16.8199 10.49 16.8199 10.78C16.8199 10.86 16.8399 10.95 16.8899 11.02H17.8199C17.8599 10.95 17.8799 10.87 17.8799 10.78C17.8799 10.49 17.6399 10.25 17.3499 10.25Z" fill="black"/>
<path d="M12.58 10.41C12.58 10.4984 12.5084 10.57 12.42 10.57C12.3316 10.57 12.26 10.4984 12.26 10.41C12.26 10.3216 12.3316 10.25 12.42 10.25C12.5084 10.25 12.58 10.3216 12.58 10.41Z" fill="white"/>
<path d="M17.2 10.41C17.2 10.4984 17.1284 10.57 17.04 10.57C16.9516 10.57 16.88 10.4984 16.88 10.41C16.88 10.3216 16.9516 10.25 17.04 10.25C17.1284 10.25 17.2 10.3216 17.2 10.41Z" fill="white"/>
<path d="M15.0299 13.8901C14.4899 13.8901 13.9899 13.7601 13.5599 13.5401C13.4199 13.4601 13.2599 13.6301 13.3499 13.7701C13.7099 14.3201 14.3199 14.6801 15.0299 14.6801C15.7399 14.6801 16.3499 14.3201 16.7099 13.7701C16.7999 13.6301 16.6399 13.4701 16.4999 13.5401C16.0699 13.7601 15.5599 13.8901 15.0299 13.8901Z" fill="#990839"/>
<path d="M14.6499 10.54L14.1299 12.23C14.0199 12.58 14.2799 12.93 14.6499 12.93H15.4299C15.7899 12.93 16.0499 12.58 15.9499 12.23L15.4299 10.54C15.2899 10.17 14.7599 10.17 14.6499 10.54Z" fill="#ED9200"/>
<path d="M11.13 8.80994C11.18 8.89994 11.27 8.94994 11.37 8.94994C11.42 8.94994 11.46 8.93994 11.51 8.90994C11.51 8.90994 12.26 8.48994 13.1 8.63994C13.25 8.66994 13.39 8.56994 13.42 8.40994C13.45 8.25994 13.35 8.11994 13.2 8.08994C12.2037 7.90794 11.3452 8.36823 11.2395 8.4249C11.2348 8.42739 11.23 8.42994 11.23 8.42994C11.1 8.50994 11.05 8.67994 11.13 8.80994Z" fill="#D37034"/>
<path d="M18.54 8.90995C18.59 8.93995 18.63 8.94995 18.68 8.94995C18.78 8.94995 18.87 8.89995 18.91 8.81995C18.99 8.68995 18.94 8.51995 18.81 8.43995C18.78 8.41995 17.88 7.90995 16.85 8.09995C16.7 8.11995 16.6 8.26995 16.63 8.41995C16.65 8.56995 16.8 8.66995 16.95 8.63995C17.7091 8.4936 18.4014 8.84086 18.5216 8.90119C18.5329 8.90682 18.54 8.90995 18.54 8.90995Z" fill="#D37034"/>
</svg>

<svg xmlns="http://www.w3.org/2000/svg" width="32" height="32" fill="none"><path fill="#7D4533" d="M20.475 4.99h.005a4.5 4.5 0 0 1 4.5 4.5c0 2.48-2.02 4.5-4.5 4.5H9.51a4.5 4.5 0 0 1-.03-9l1.02-.49-.23-.5a6.545 6.545 0 0 1 9.42 0l-.19.5.975.49Z"/><path fill="#533566" d="M20.476 4.99A6.712 6.712 0 0 0 19.69 4h-9.42c-.287.3-.552.633-.786.99H20.476Z"/><path fill="#F1A11E" d="M22.22 8.94c.36.54.57 1.18.57 1.88 0 .53-.12 1.03-.32 1.47-.07.15-.07.33 0 .48.22.45.34.96.33 1.5-.03 1.83-1.55 3.29-3.38 3.29h-8.78c-1.83 0-3.36-1.46-3.38-3.29-.01-.54.11-1.05.33-1.5.07-.15.07-.33 0-.48a3.41 3.41 0 0 1-.33-1.47c0-.69.17-1.37.57-1.88.36-.47.64-.84.87-1.14.49-.63 1.24-1 2.03-1h7.55c1.58 0 3.06.8 3.93 2.12 0 .01.01.01.01.02Z"/><path fill="#00D26A" d="m8 17.995-.03.024v-.029a10.983 10.983 0 0 0-3.378 4.914A11.149 11.149 0 0 0 4 26.5v3.47h.03v.01L6 30h2l1-6-1-6.005ZM22 30h4v-3.5c0-3.41-1.558-6.462-4-8.483L21 24l1 6ZM20 16.698 21 20l-1 3-5 1-5-1-1-3 1-3.317a10.958 10.958 0 0 1 4.99-1.193c1.803 0 3.506.436 5.01 1.208Z"/><path fill="#0084CE" d="M10 16.683c-.716.365-1.386.806-2 1.312V30h14V18.017a11.047 11.047 0 0 0-2-1.32V22.5a.5.5 0 0 1-.5.5h-9a.5.5 0 0 1-.5-.5v-5.817Z"/><path fill="#46A4FB" d="M11 27a1 1 0 0 1 1-1h6a1 1 0 0 1 1 1v3h-8v-3Z"/><path fill="#008463" d="m11.87 21.53 3.12-2.19 3.12 2.19c.37.26.88 0 .88-.46v-4.83c-1.24-.48-2.59-.75-4-.75-1.41 0-2.76.27-4 .75v4.84c0 .44.51.71.88.45Z"/><path fill="#fff" d="m15.91 19.68-.65.58c-.16.14-.39.14-.55 0l-.65-.58a3.449 3.449 0 0 1-1.14-2.55v-3.09c0-1.14.92-2.06 2.06-2.06 1.14 0 2.06.92 2.06 2.06v3.09c0 .97-.41 1.9-1.13 2.55Z"/><path fill="#FCB100" d="M14.99 18.66c-1.14 0-2.06-.92-2.06-2.06v-2.56c0-1.14.92-2.06 2.06-2.06 1.14 0 2.06.92 2.06 2.06v2.56a2.07 2.07 0 0 1-2.06 2.06Z"/><path fill="#F59F00" d="M27 23c.55 0 1 .41 1 .912V26h-2v-2.088c0-.502.44-.912 1-.912Z"/><path fill="#7D4533" d="M26 21.76h-1v4h1v-4Z"/><path fill="#D3D3D3" d="M28.46 10.99c-.269.02-.469.25-.469.52v4.45c0 .54-.409 1-.948 1.03-.57.03-1.049-.43-1.049-1v-4.48c0-.27-.2-.5-.469-.52a.496.496 0 0 0-.53.5v4.47c0 .54-.409 1-.948 1.03-.57.03-1.048-.43-1.048-1v-4.48c0-.27-.2-.5-.47-.52a.496.496 0 0 0-.529.5v7.08c0 .78.63 1.43 1.408 1.43h1.338v1.76c0 .12.1.22.22.22h1.068c.12 0 .22-.1.22-.22V20h1.338c.779 0 1.408-.65 1.408-1.43v-7.08a.51.51 0 0 0-.54-.5Z"/><path fill="#FFC83D" d="M24.21 24.76c-.374 0-.692.32-.7.72-.01.27.117.51.3.65a.765.765 0 0 0-.31.62c0 .26.118.49.31.62a.765.765 0 0 0-.31.62c0 .26.118.49.31.62-.192.14-.31.38-.3.65.008.42.326.74.7.74h3c.435 0 .79-.39.79-.87v-3.51c0-.48-.355-.87-.79-.87h-3v.01Z"/><path fill="#FDBB11" d="M11.81 10.66a1.63 1.63 0 1 1-3.26 0 1.63 1.63 0 0 1 3.26 0ZM21.53 10.66a1.63 1.63 0 1 1-3.26 0 1.63 1.63 0 0 1 3.26 0Z"/><path fill="#FFC83D" d="M19.07 7.57h-3.29c-.85 0-1.67-.28-2.34-.77h-1.91c-.22.24-.49.43-.78.56-.04.02-.07.04-.11.05-.24.12-.81.5-.82 1.47l.14 3.27c.11 2.91 2.35 4.85 5.07 4.85s4.95-1.94 5.07-4.85l.13-3.11c-.01-1.37-.97-1.47-1.16-1.47Z"/><path fill="#000" d="M12.34 9.48c.58 0 1.06.4 1.35.85-.261.08-.515.154-.768.226a20.8 20.8 0 0 0-1.302.404l-.49-.45a.429.429 0 0 1 .03-.67c.33-.23.77-.36 1.18-.36ZM17.74 9.48c-.58 0-1.05.4-1.35.85.267.083.527.157.786.23.428.123.851.244 1.294.4l.49-.45c.2-.18.18-.51-.04-.67a2.13 2.13 0 0 0-1.18-.36Z"/><path fill="#fff" d="M11.12 10.67c.16-.63.72-1.09 1.4-1.09.7 0 1.29.5 1.42 1.16.02.15-.09.28-.24.28h-2.3c-.19 0-.32-.17-.28-.35ZM18.96 10.67c-.16-.63-.72-1.09-1.4-1.09-.7 0-1.28.5-1.42 1.16-.02.15.09.28.24.28h2.3c.19 0 .32-.17.28-.35Z"/><path fill="#7D4533" d="M11.81 10.78c0-.51.41-.92.92-.92s.93.42.92.92c0 .08-.01.16-.03.24h-1.78a.928.928 0 0 1-.03-.24ZM18.27 10.78c0-.51-.41-.92-.92-.92a.924.924 0 0 0-.89 1.16h1.78c.02-.07.03-.16.03-.24Z"/><path fill="#000" d="M12.73 10.25c.29 0 .53.24.53.53 0 .08-.02.17-.06.24h-.94a.475.475 0 0 1-.06-.24c0-.29.24-.53.53-.53ZM17.35 10.25c-.29 0-.53.24-.53.53 0 .08.02.17.07.24h.93c.04-.07.06-.15.06-.24 0-.29-.24-.53-.53-.53Z"/><path fill="#fff" d="M12.58 10.41a.16.16 0 1 1-.32 0 .16.16 0 0 1 .32 0ZM17.2 10.41a.16.16 0 1 1-.32 0 .16.16 0 0 1 .32 0Z"/><path fill="#990839" d="M15.03 13.89c-.54 0-1.04-.13-1.47-.35-.14-.08-.3.09-.21.23.36.55.97.91 1.68.91s1.32-.36 1.68-.91c.09-.14-.07-.3-.21-.23-.43.22-.94.35-1.47.35Z"/><path fill="#ED9200" d="m14.65 10.54-.52 1.69c-.11.35.15.7.52.7h.78c.36 0 .62-.35.52-.7l-.52-1.69c-.14-.37-.67-.37-.78 0Z"/><path fill="#D37034" d="M11.13 8.81c.05.09.14.14.24.14.05 0 .09-.01.14-.04 0 0 .75-.42 1.59-.27.15.03.29-.07.32-.23a.273.273 0 0 0-.22-.32c-.996-.182-1.855.278-1.96.335l-.01.005c-.13.08-.18.25-.1.38ZM18.54 8.91c.05.03.09.04.14.04.1 0 .19-.05.23-.13.08-.13.03-.3-.1-.38-.03-.02-.93-.53-1.96-.34-.15.02-.25.17-.22.32.02.15.17.25.32.22.76-.146 1.451.2 1.572.261a.48.48 0 0 0 .018.009Z"/></svg>
